src/assets/filled/Airdrop.svg

<svg width="24" height="24" viewBox="0 0 24 24"  xmlns="http://www.w3.org/2000/svg">
<path d="M14.13 11.3395C14.52 9.69954 13.09 8.26954 11.45 8.65954C10.68 8.84954 10.05 9.47954 9.85998 10.2495C9.46998 11.8895 10.9 13.3195 12.54 12.9295C13.32 12.7395 13.95 12.1095 14.13 11.3395Z" />
<path d="M6.01996 17.97C5.83996 17.97 5.64996 17.9 5.50996 17.77C3.56996 15.97 2.45996 13.43 2.45996 10.79C2.45996 5.53 6.73996 1.25 12 1.25C17.26 1.25 21.54 5.53 21.54 10.79C21.54 13.45 20.47 15.91 18.53 17.74C18.23 18.02 17.75 18.01 17.47 17.71C17.19 17.41 17.2 16.93 17.5 16.65C19.14 15.11 20.04 13.04 20.04 10.8C20.04 6.37 16.43 2.76 12 2.76C7.56996 2.76 3.95996 6.37 3.95996 10.8C3.95996 13.06 4.86996 15.14 6.52996 16.68C6.82996 16.96 6.84996 17.44 6.56996 17.74C6.41996 17.89 6.21996 17.97 6.01996 17.97Z" />
<path d="M16 15.2996C15.82 15.2996 15.63 15.2296 15.49 15.0996C15.19 14.8196 15.17 14.3396 15.46 14.0396C16.29 13.1596 16.75 11.9996 16.75 10.7996C16.75 8.17957 14.62 6.05957 12.01 6.05957C9.40002 6.05957 7.27002 8.18957 7.27002 10.7996C7.27002 12.0096 7.73002 13.1596 8.56002 14.0396C8.84002 14.3396 8.83002 14.8196 8.53002 15.0996C8.23002 15.3896 7.75002 15.3696 7.47002 15.0696C6.38002 13.9096 5.77002 12.3896 5.77002 10.7996C5.77002 7.35957 8.57002 4.55957 12.01 4.55957C15.45 4.55957 18.25 7.35957 18.25 10.7996C18.25 12.3896 17.65 13.9096 16.55 15.0696C16.4 15.2196 16.2 15.2996 16 15.2996Z" />
<path d="M10.2999 16.66L8.85988 18.45C7.71988 19.88 8.73989 22 10.5599 22H13.4299C15.2599 22 16.2799 19.88 15.1299 18.46L13.6899 16.67C12.8299 15.57 11.1699 15.57 10.2999 16.66Z" />
</svg>

<?xml version="1.0" encoding="UTF-8"?>
<svg width="24" height="24" viewBox="0 0 24 24" xmlns="http://www.w3.org/2000/svg">
 <path d="m14.13 11.34c0.39-1.64-1.04-3.07-2.68-2.68-0.77 0.19-1.4 0.82-1.59 1.59-0.39 1.64 1.04 3.07 2.68 2.68 0.78-0.19 1.41-0.82 1.59-1.59z"/>
 <path d="m6.02 17.97c-0.18 0-0.37-0.07-0.51-0.2-1.94-1.8-3.05-4.34-3.05-6.98 0-5.26 4.28-9.54 9.54-9.54 5.26 0 9.54 4.28 9.54 9.54 0 2.66-1.07 5.12-3.01 6.95-0.3 0.28-0.78 0.27-1.06-0.03s-0.27-0.78 0.03-1.06c1.64-1.54 2.54-3.61 2.54-5.85 0-4.43-3.61-8.04-8.04-8.04-4.43 0-8.04 3.61-8.04 8.04 0 2.26 0.91 4.34 2.57 5.88 0.3 0.28 0.32 0.76 0.04 1.06-0.15 0.15-0.35 0.23-0.55 0.23z"/>
 <path d="m16 15.3c-0.18 0-0.37-0.07-0.51-0.2-0.3-0.28-0.32-0.76-0.03-1.06 0.83-0.88 1.29-2.04 1.29-3.24 0-2.62-2.13-4.74-4.74-4.74-2.61 0-4.74 2.13-4.74 4.74 0 1.21 0.46 2.36 1.29 3.24 0.28 0.3 0.27 0.78-0.03 1.06-0.3 0.29-0.78 0.27-1.06-0.03-1.09-1.16-1.7-2.68-1.7-4.27 0-3.44 2.8-6.24 6.24-6.24 3.44 0 6.24 2.8 6.24 6.24 0 1.59-0.6 3.11-1.7 4.27-0.15 0.15-0.35 0.23-0.55 0.23z"/>
 <path d="m10.3 16.66-1.44 1.79c-1.14 1.43-0.11999 3.55 1.7 3.55h2.87c1.83 0 2.85-2.12 1.7-3.54l-1.44-1.79c-0.86-1.1-2.52-1.1-3.39-0.01z"/>
</svg>
